X: 842
T: Will You Come Home With Me?
N:"1st Setting"
N:"Collected by Cronin"
B:O'Neill's 842
Z:Transcribed by Dan G. Petersen, dangp@post6.tele.dk
M:6/8
L:1/8
K:G
G|FGA AFD|BAG AFD|ABA ABG|ABA ABG|
FGA AFD|BAG AFD|D>GG GAF|D>GG G2:|
A|~B3 cBc|ded cAG|ABA ABG|ABA ABG|
~B3 cBc|ded cAF|D>GG GAF|D>GG G2:|


